physalisproject/media/319t.svg

<?xml version="1.0" encoding="UTF-8" standalone="no"?>
<svg
   xml:lang="en"
   height="138.75pt"
   width="289.03799pt"
   viewBox="-29.808045 -145.53722 289.038 138.75"
   version="1.1"
   id="svg30"
   sodipodi:docname="319t.svg"
   inkscape:version="1.3.2 (091e20e, 2023-11-25)"
   xmlns:inkscape="http://www.inkscape.org/namespaces/inkscape"
   xmlns:sodipodi="http://sodipodi.sourceforge.net/DTD/sodipodi-0.dtd"
   xmlns="http://www.w3.org/2000/svg"
   xmlns:svg="http://www.w3.org/2000/svg">
  <defs
     id="defs30" />
  <sodipodi:namedview
     id="namedview30"
     pagecolor="#ffffff"
     bordercolor="#000000"
     borderopacity="0.25"
     inkscape:showpageshadow="2"
     inkscape:pageopacity="0.0"
     inkscape:pagecheckerboard="0"
     inkscape:deskcolor="#d1d1d1"
     inkscape:document-units="pt"
     inkscape:zoom="1.1689924"
     inkscape:cx="195.03976"
     inkscape:cy="87.254629"
     inkscape:current-layer="svg30" />
  <path
     d="m 91.717955,-126.17722 a 8.1,12.15 0 0 1 4.16,12.08"
     style="fill:none;stroke:#000000;stroke-width:2"
     id="path1" />
  <path
     d="m 95.170405,-108.04045 -1.70122,-6.34198 4.82676,0.56739 z"
     style="fill:#000000;stroke:#000000;stroke-linecap:butt;stroke-linejoin:miter"
     id="path2" />
  <polygon
     points="144.18,-42.93 127.98,-42.93 136.08,-54.27 "
     style="fill:none;stroke:#000000;stroke-width:2;stroke-linecap:round;stroke-linejoin:round"
     id="polygon2"
     transform="translate(-10.982045,-10.21722)" />
  <path
     d="m -10.982045,-10.21722 v -45.5625 m 0,-6.075 v -45.5625"
     style="fill:none;stroke:#000000;stroke-width:2;stroke-linecap:round;stroke-linejoin:round"
     id="path3" />
  <path
     d="M 1.1679548,-61.85472 H -23.132045"
     style="fill:none;stroke:#000000;stroke-width:2;stroke-linecap:round;stroke-linejoin:round"
     id="path4" />
  <path
     d="M -4.9070452,-55.77972 H -17.057045"
     style="fill:none;stroke:#000000;stroke-width:2;stroke-linecap:round;stroke-linejoin:round"
     id="path5" />
  <path
     d="m -10.982045,-107.41722 h 31.104 m 0,-8.1 v 16.2 m 5.832,-16.2 v 16.2 m 0,-8.1 h 31.104"
     style="fill:none;stroke:#000000;stroke-width:2;stroke-linecap:round;stroke-linejoin:round"
     id="path6" />
  <path
     d="m 57.057955,-107.41722 h 17.82 m 7.776,-3.24 18.143995,-11.34 m 6.48,14.58 h 17.82"
     style="fill:none;stroke:#000000;stroke-width:2;stroke-linecap:round;stroke-linejoin:round"
     id="path7" />
  <path
     d="m 125.09795,-107.41722 v 42.93 m -8.1,0 h 16.2 m -8.1,11.34 v 42.93"
     style="fill:none;stroke:#000000;stroke-width:2;stroke-linecap:round;stroke-linejoin:round"
     id="path8" />
  <path
     d="m 125.09795,-107.41722 h 32.4 v -8.1 h 32.4 v 16.2 h -32.4 v -8.1 m 32.4,0 h 32.4"
     style="fill:none;stroke:#000000;stroke-width:2;stroke-linecap:round;stroke-linejoin:round"
     id="path9" />
  <path
     d="m 222.29795,-107.41722 v 45.684 m 8.1,0 h -16.2 m 16.2,5.832 h -16.2 m 8.1,0 v 45.684"
     style="fill:none;stroke:#000000;stroke-width:2;stroke-linecap:round;stroke-linejoin:round"
     id="path10" />
  <path
     d="m 222.29795,-10.21722 h -116.64 -116.639995"
     style="fill:none;stroke:#000000;stroke-width:2;stroke-linecap:round;stroke-linejoin:round"
     id="path11" />
  <g
     id="g14"
     transform="translate(-10.982045,-10.21722)">
    <g
       id="g13">
      <g
         id="g12">
        <path
           d="m -13.21,-63.087 v 0 q -2.652,0 -4.134,-1.183 -1.482,-1.183 -1.482,-3.185 0,-1.612 0.871,-2.73 0.871,-1.118 2.275,-1.768 1.404,-0.65 2.99,-0.858 v -0.156 q -1.248,-0.39 -2.132,-1.326 -0.884,-0.936 -0.884,-2.314 0,-1.092 0.546,-1.872 0.546,-0.78 1.456,-1.3 0.91,-0.52 2.015,-0.767 1.105,-0.247 2.197,-0.247 0.962,0 1.95,0.234 0.988,0.234 1.664,0.819 0.676,0.585 0.676,1.703 0,0.962 -0.494,1.404 -0.494,0.442 -1.014,0.442 -0.416,0 -0.728,-0.247 -0.312,-0.247 -0.312,-0.741 0,-0.286 0.078,-0.689 0.078,-0.403 0.078,-0.741 0,-0.572 -0.377,-0.936 -0.377,-0.364 -1.521,-0.364 -1.794,0 -2.821,0.949 -1.027,0.949 -1.027,2.639 0,1.404 0.676,2.08 0.676,0.676 1.729,0.884 1.053,0.208 2.145,0.208 l -0.13,1.04 q -3.9,0 -5.616,1.014 -1.716,1.014 -1.716,3.38 0,1.898 0.949,2.782 0.949,0.884 2.535,0.884 3.12,0 4.602,-3.484 l 0.468,-0.13 q 0.182,0.26 0.429,0.715 0.247,0.455 0.247,0.663 0,0.208 -0.351,0.715 -0.351,0.507 -1.092,1.079 -0.741,0.572 -1.911,0.988 -1.17,0.416 -2.834,0.416 z"
           fill="#000000"
           id="path12" />
      </g>
    </g>
  </g>
  <g
     id="g17"
     transform="translate(-10.982045,-10.21722)">
    <g
       id="g16">
      <g
         id="g15">
        <path
           d="m 36.564,-121.67 v 0 l 0.468,0.494 q -1.326,1.56 -3.068,2.561 -1.742,1.001 -4.212,1.001 -2.34,0 -3.744,-0.871 -1.404,-0.871 -2.015,-2.327 -0.611,-1.456 -0.611,-3.172 0,-2.73 0.832,-4.849 0.832,-2.119 2.275,-3.562 1.443,-1.443 3.263,-2.184 1.82,-0.741 3.796,-0.741 1.326,0 2.067,0.234 0.741,0.234 1.157,0.481 0.416,0.247 0.728,0.247 0.312,0 0.546,-0.26 0.234,-0.26 0.546,-0.676 h 0.754 l -1.222,5.954 h -0.858 q 0.104,-2.6 -0.962,-3.731 -1.066,-1.131 -2.99,-1.131 -1.508,0 -2.834,0.689 -1.326,0.689 -2.353,1.95 -1.027,1.261 -1.612,3.016 -0.585,1.755 -0.585,3.913 0,2.6 1.235,3.965 1.235,1.365 3.809,1.365 2.99,0 5.59,-2.366 z"
           fill="#000000"
           id="path14" />
        <path
           d="m 46.377,-112.44 v 0 h -6.17 v -0.655 q 1.31,0 1.738,-0.264 0.428,-0.264 0.428,-0.956 v -7.935 q 0,-0.491 -0.146,-0.71 -0.146,-0.218 -0.528,-0.218 -0.291,0 -0.792,0.082 -0.5,0.082 -0.864,0.173 v -0.728 l 3.367,-0.928 h 0.782 v 10.264 q 0,0.692 0.465,0.956 0.464,0.264 1.72,0.264 z"
           fill="#000000"
           id="path15" />
      </g>
    </g>
  </g>
  <circle
     cx="78.765953"
     cy="-107.41721"
     r="3.888"
     style="fill:#ffffff;stroke:#000000;stroke-width:2"
     id="circle17" />
  <circle
     cx="103.38995"
     cy="-107.41721"
     r="3.888"
     style="fill:#ffffff;stroke:#000000;stroke-width:2"
     id="circle18" />
  <circle
     cx="125.09795"
     cy="-107.41721"
     r="2.4300001"
     style="fill:#000000;stroke:#000000;stroke-width:2"
     id="circle19" />
  <g
     id="g21"
     transform="translate(-10.982045,-10.21722)">
    <g
       id="g20">
      <g
         id="g19">
        <path
           d="m 122.578,-110.31 v 0 l 2.132,-10.244 q 0.208,-1.014 0.182,-1.599 -0.026,-0.585 -0.494,-0.819 -0.468,-0.234 -1.612,-0.234 l 0.156,-0.78 h 7.332 l -0.13,0.78 q -1.222,0 -1.82,0.234 -0.598,0.234 -0.845,0.819 -0.247,0.585 -0.455,1.599 l -0.988,4.862 h 0.104 l 4.966,-4.082 q 1.144,-0.91 1.833,-1.586 0.689,-0.676 0.689,-1.248 0,-0.598 -0.962,-0.598 h -0.442 l 0.182,-0.78 h 6.11 l -0.13,0.78 q -0.728,0.052 -1.235,0.221 -0.507,0.169 -1.027,0.507 -0.52,0.338 -1.326,0.988 l -6.708,5.408 5.746,7.28 q 0.52,0.624 1.157,0.871 0.637,0.247 1.599,0.247 l -0.156,0.78 h -7.488 l 0.13,-0.78 h 0.338 q 0.598,0 0.923,-0.156 0.325,-0.156 0.325,-0.598 0,-0.416 -0.247,-0.949 -0.247,-0.533 -0.858,-1.391 -0.611,-0.858 -1.729,-2.184 l -1.638,-1.976 h -0.312 l -0.936,4.628 q -0.208,1.118 -0.182,1.677 0.026,0.559 0.533,0.754 0.507,0.195 1.651,0.195 l -0.156,0.78 h -7.254 l 0.156,-0.78 q 1.092,0 1.625,-0.195 0.533,-0.195 0.78,-0.754 0.247,-0.559 0.481,-1.677 z"
           fill="#000000"
           id="path19" />
      </g>
    </g>
  </g>
  <circle
     cx="125.09795"
     cy="-10.21722"
     r="2.4300001"
     style="fill:#000000;stroke:#000000;stroke-width:2"
     id="circle21" />
  <g
     id="g24"
     transform="translate(-10.982045,-10.21722)">
    <g
       id="g23">
      <g
         id="g22">
        <path
           d="m 150.826,-59.826 v 0 h 6.76 q 4.056,0 5.954,1.846 1.898,1.846 1.898,4.888 0,3.666 -1.469,5.954 -1.469,2.288 -4.043,3.341 -2.574,1.053 -5.902,1.053 h -6.604 l 0.156,-0.78 q 0.988,0 1.534,-0.169 0.546,-0.169 0.832,-0.702 0.286,-0.533 0.494,-1.573 l 2.262,-10.894 q 0.182,-0.962 0.052,-1.417 -0.13,-0.455 -0.637,-0.611 -0.507,-0.156 -1.443,-0.156 z m 4.576,1.118 v 0 l -3.068,14.872 q 0.364,0.052 0.78,0.065 0.416,0.013 0.91,0.013 4.186,0 6.5,-2.145 2.314,-2.145 2.314,-6.955 0,-1.196 -0.273,-2.262 -0.273,-1.066 -0.949,-1.898 -0.676,-0.832 -1.911,-1.3 -1.235,-0.468 -3.159,-0.468 -0.338,0 -0.559,0.013 -0.221,0.013 -0.585,0.065 z"
           fill="#000000"
           id="path21" />
      </g>
    </g>
  </g>
  <g
     id="g27"
     transform="translate(-10.982045,-10.21722)">
    <g
       id="g26">
      <g
         id="g25">
        <path
           d="m 191.674,-125.934 v 0 q 0,1.378 -0.52,2.314 -0.52,0.936 -1.352,1.534 -0.832,0.598 -1.781,0.923 -0.949,0.325 -1.807,0.481 v 0.13 q 0.468,0.312 0.884,0.949 0.416,0.637 1.027,1.833 0.611,1.196 1.677,3.224 0.442,0.78 0.975,1.053 0.533,0.273 1.417,0.273 l -0.156,0.78 h -3.952 q -0.728,-1.612 -1.222,-2.691 -0.494,-1.079 -0.858,-1.807 -0.364,-0.728 -0.637,-1.3 -0.273,-0.572 -0.585,-1.17 -0.286,-0.546 -0.624,-0.715 -0.338,-0.169 -1.04,-0.169 h -0.546 l -0.962,4.628 q -0.208,1.066 -0.143,1.599 0.065,0.533 0.585,0.689 0.52,0.156 1.638,0.156 l -0.13,0.78 h -7.176 l 0.156,-0.78 q 0.962,0 1.482,-0.156 0.52,-0.156 0.793,-0.676 0.273,-0.52 0.481,-1.612 l 2.288,-11.154 q 0.156,-0.728 0.078,-1.144 -0.078,-0.416 -0.533,-0.598 -0.455,-0.182 -1.495,-0.182 l 0.156,-0.78 h 6.11 q 2.73,0 4.251,0.845 1.521,0.845 1.521,2.743 z m -7.462,-2.496 v 0 l -1.456,7.176 0.806,0.026 q 1.56,-0.052 2.821,-0.507 1.261,-0.455 1.989,-1.443 0.728,-0.988 0.728,-2.652 0,-0.702 -0.299,-1.313 -0.299,-0.611 -1.027,-0.988 -0.728,-0.377 -2.028,-0.377 -0.494,0 -0.793,0.013 -0.299,0.013 -0.741,0.065 z"
           fill="#000000"
           id="path24" />
      </g>
    </g>
  </g>
  <g
     id="g30"
     transform="translate(-10.982045,-10.21722)">
    <g
       id="g29">
      <g
         id="g28">
        <path
           d="m 259.362,-50.29 v 0 l 0.468,0.494 q -1.326,1.56 -3.068,2.561 -1.742,1.001 -4.212,1.001 -2.34,0 -3.744,-0.871 -1.404,-0.871 -2.015,-2.327 -0.611,-1.456 -0.611,-3.172 0,-2.73 0.832,-4.849 0.832,-2.119 2.275,-3.562 1.443,-1.443 3.263,-2.184 1.82,-0.741 3.796,-0.741 1.326,0 2.067,0.234 0.741,0.234 1.157,0.481 0.416,0.247 0.728,0.247 0.312,0 0.546,-0.26 0.234,-0.26 0.546,-0.676 h 0.754 l -1.222,5.954 h -0.858 q 0.104,-2.6 -0.962,-3.731 -1.066,-1.131 -2.99,-1.131 -1.508,0 -2.834,0.689 -1.326,0.689 -2.353,1.95 -1.027,1.261 -1.612,3.016 -0.585,1.755 -0.585,3.913 0,2.6 1.235,3.965 1.235,1.365 3.809,1.365 2.99,0 5.59,-2.366 z"
           fill="#000000"
           id="path27" />
        <path
           d="m 270.212,-44.227 v 0 l -0.619,3.167 h -7.462 v -0.892 l 2.584,-2.621 q 1.02,-1.019 1.684,-1.801 0.664,-0.783 0.992,-1.575 0.327,-0.791 0.327,-1.811 0,-0.964 -0.591,-1.592 -0.592,-0.628 -1.665,-0.628 -0.983,0 -1.648,0.391 -0.664,0.392 -1.173,1.283 l -0.492,-0.236 q 0.455,-1.274 1.411,-2.002 0.955,-0.728 2.357,-0.728 1.092,0 1.929,0.391 0.837,0.391 1.31,1.119 0.473,0.728 0.473,1.766 0,0.892 -0.4,1.674 -0.4,0.783 -1.138,1.602 -0.737,0.819 -1.756,1.82 l -2.275,2.202 v 0.127 l 1.42,-0.072 h 2.366 q 0.528,0 0.81,-0.146 0.282,-0.146 0.482,-0.5 0.2,-0.355 0.437,-0.938 z"
           fill="#000000"
           id="path28" />
      </g>
    </g>
  </g>
</svg>

<svg xmlns="http://www.w3.org/2000/svg" xml:lang="en" height="151.41243999999998pt" width="314.6354104pt" viewBox="-29.808045199999995 -145.53721999999996 314.6354104 151.41243999999998"><path d="M 102.7 -115.96 a 8.1 12.149999999999999 0 0 1 4.159999999999997 12.079999999999998" style="stroke:black;fill:none;stroke-width:2.0;" /><path d="M 106.15244971639109 -97.82323237895828 L 104.45122646190606 -104.16521467461311 L 109.27799200068269 -103.59782201191967 Z" style="stroke:black;fill:black;stroke-linecap:butt;stroke-linejoin:miter;" /><polygon points="127.97999999999996,-42.93000000000001 136.07999999999998,-54.269999999999996 144.17999999999998,-42.93000000000001 " style="stroke:black;fill:none;stroke-width:2.0;stroke-linecap:round;stroke-linejoin:round;" /><path d="M 0.0,-0.0 L 2.789898489307564e-15,-45.5625 M 3.1618849545485723e-15,-51.637499999999996 L 5.951783443856136e-15,-97.19999999999999" style="stroke:black;fill:none;stroke-width:2.0;stroke-linecap:round;stroke-linejoin:round;" /><path d="M 12.150000000000004,-51.637499999999996 L -12.149999999999995,-51.637499999999996" style="stroke:black;fill:none;stroke-width:2.0;stroke-linecap:round;stroke-linejoin:round;" /><path d="M 6.075000000000003,-45.5625 L -6.074999999999997,-45.5625" style="stroke:black;fill:none;stroke-width:2.0;stroke-linecap:round;stroke-linejoin:round;" /><path d="M 5.951783443856136e-15,-97.19999999999999 L 31.104000000000003,-97.19999999999999 M 31.104000000000003,-105.3 L 31.104000000000003,-89.1 M 36.936,-105.3 L 36.936,-89.1 M 36.936,-97.19999999999999 L 68.03999999999999,-97.19999999999999" style="stroke:black;fill:none;stroke-width:2.0;stroke-linecap:round;stroke-linejoin:round;" /><path d="M 68.03999999999999,-97.19999999999999 L 85.85999999999999,-97.19999999999999 M 93.63599999999998,-100.44 L 111.77999999999997,-111.78 M 118.25999999999998,-97.19999999999999 L 136.07999999999998,-97.19999999999999" style="stroke:black;fill:none;stroke-width:2.0;stroke-linecap:round;stroke-linejoin:round;" /><path d="M 136.07999999999998,-97.19999999999999 L 136.07999999999998,-54.269999999999996 M 127.97999999999998,-54.269999999999996 L 144.17999999999998,-54.269999999999996 M 136.07999999999998,-42.93000000000001 L 136.07999999999996,-0.0" style="stroke:black;fill:none;stroke-width:2.0;stroke-linecap:round;stroke-linejoin:round;" /><path d="M 136.07999999999998,-97.19999999999999 L 168.47999999999996,-97.19999999999999 L 168.47999999999996,-105.3 L 200.87999999999997,-105.3 L 200.87999999999997,-89.1 L 168.47999999999996,-89.1 L 168.47999999999996,-97.19999999999999 M 200.87999999999997,-97.19999999999999 L 233.27999999999997,-97.19999999999999" style="stroke:black;fill:none;stroke-width:2.0;stroke-linecap:round;stroke-linejoin:round;" /><path d="M 233.27999999999997,-97.19999999999999 L 233.27999999999997,-51.516 M 241.37999999999997,-51.516 L 225.17999999999998,-51.516 M 241.37999999999997,-45.684000000000005 L 225.17999999999998,-45.684000000000005 M 233.27999999999997,-45.684000000000005 L 233.27999999999994,-0.0" style="stroke:black;fill:none;stroke-width:2.0;stroke-linecap:round;stroke-linejoin:round;" /><path d="M 233.27999999999994,-0.0 L 116.63999999999997,-1.4284280265254725e-14 L 0.0,-2.856856053050945e-14" style="stroke:black;fill:none;stroke-width:2.0;stroke-linecap:round;stroke-linejoin:round;" /><g><g><g><path d="M -13.21 -63.087 L -13.21 -63.087 Q -15.862 -63.087 -17.344 -64.27 Q -18.826 -65.453 -18.826 -67.455 Q -18.826 -69.067 -17.955 -70.185 Q -17.084 -71.303 -15.68 -71.953 Q -14.276 -72.603 -12.69 -72.811 L -12.69 -72.967 Q -13.938 -73.357 -14.822 -74.293 Q -15.706 -75.229 -15.706 -76.607 Q -15.706 -77.699 -15.16 -78.479 Q -14.614 -79.259 -13.704 -79.779 Q -12.794 -80.299 -11.689 -80.546 Q -10.584 -80.793 -9.492 -80.793 Q -8.53 -80.793 -7.542 -80.559 Q -6.554 -80.325 -5.878 -79.74 Q -5.202 -79.155 -5.202 -78.037 Q -5.202 -77.075 -5.696 -76.633 Q -6.19 -76.191 -6.71 -76.191 Q -7.126 -76.191 -7.438 -76.438 Q -7.75 -76.685 -7.75 -77.179 Q -7.75 -77.465 -7.672 -77.868 Q -7.594 -78.271 -7.594 -78.609 Q -7.594 -79.181 -7.971 -79.545 Q -8.348 -79.909 -9.492 -79.909 Q -11.286 -79.909 -12.313 -78.96 Q -13.34 -78.011 -13.34 -76.321 Q -13.34 -74.917 -12.664 -74.241 Q -11.988 -73.565 -10.935 -73.357 Q -9.882 -73.149 -8.79 -73.149 L -8.92 -72.109 Q -12.82 -72.109 -14.536 -71.095 Q -16.252 -70.081 -16.252 -67.715 Q -16.252 -65.817 -15.303 -64.933 Q -14.354 -64.049 -12.768 -64.049 Q -9.648 -64.049 -8.166 -67.533 L -7.698 -67.663 Q -7.516 -67.403 -7.269 -66.948 Q -7.022 -66.493 -7.022 -66.285 Q -7.022 -66.077 -7.373 -65.57 Q -7.724 -65.063 -8.465 -64.491 Q -9.206 -63.919 -10.376 -63.503 Q -11.546 -63.087 -13.21 -63.087 Z " fill="black" /></g></g></g><g><g><g><path d="M 36.564 -121.67 L 36.564 -121.67 L 37.032 -121.176 Q 35.706 -119.616 33.964 -118.615 Q 32.222 -117.614 29.752 -117.614 Q 27.412 -117.614 26.008 -118.485 Q 24.604 -119.356 23.993 -120.812 Q 23.382 -122.268 23.382 -123.984 Q 23.382 -126.714 24.214 -128.833 Q 25.046 -130.952 26.489 -132.395 Q 27.932 -133.838 29.752 -134.579 Q 31.572 -135.32 33.548 -135.32 Q 34.874 -135.32 35.615 -135.086 Q 36.356 -134.852 36.772 -134.605 Q 37.188 -134.358 37.5 -134.358 Q 37.812 -134.358 38.046 -134.618 Q 38.28 -134.878 38.592 -135.294 L 39.346 -135.294 L 38.124 -129.34 L 37.266 -129.34 Q 37.37 -131.94 36.304 -133.071 Q 35.238 -134.202 33.314 -134.202 Q 31.806 -134.202 30.48 -133.513 Q 29.154 -132.824 28.127 -131.563 Q 27.1 -130.302 26.515 -128.547 Q 25.93 -126.792 25.93 -124.634 Q 25.93 -122.034 27.165 -120.669 Q 28.4 -119.304 30.974 -119.304 Q 33.964 -119.304 36.564 -121.67 Z " fill="black" /><path d="M 46.377 -112.44 L 46.377 -112.44 L 40.207 -112.44 L 40.207 -113.095 Q 41.517 -113.095 41.945 -113.359 Q 42.373 -113.623 42.373 -114.315 L 42.373 -122.25 Q 42.373 -122.741 42.227 -122.96 Q 42.081 -123.178 41.699 -123.178 Q 41.408 -123.178 40.907 -123.096 Q 40.407 -123.014 40.043 -122.923 L 40.043 -123.651 L 43.41 -124.579 L 44.192 -124.579 L 44.192 -114.315 Q 44.192 -113.623 44.657 -113.359 Q 45.121 -113.095 46.377 -113.095 Z " fill="black" /></g></g></g><circle cx="89.74799999999998" cy="-97.19999999999999" r="3.888" style="stroke:black;fill:white;stroke-width:2.0;" /><circle cx="114.37199999999997" cy="-97.19999999999999" r="3.888" style="stroke:black;fill:white;stroke-width:2.0;" /><circle cx="136.07999999999998" cy="-97.19999999999999" r="2.4299999999999997" style="stroke:black;fill:black;stroke-width:2.0;" /><g><g><g><path d="M 122.578 -110.31 L 122.578 -110.31 L 124.71 -120.554 Q 124.918 -121.568 124.892 -122.153 Q 124.866 -122.738 124.398 -122.972 Q 123.93 -123.206 122.786 -123.206 L 122.942 -123.986 L 130.274 -123.986 L 130.144 -123.206 Q 128.922 -123.206 128.324 -122.972 Q 127.726 -122.738 127.479 -122.153 Q 127.232 -121.568 127.024 -120.554 L 126.036 -115.692 L 126.14 -115.692 L 131.106 -119.774 Q 132.25 -120.684 132.939 -121.36 Q 133.628 -122.036 133.628 -122.608 Q 133.628 -123.206 132.666 -123.206 L 132.224 -123.206 L 132.406 -123.986 L 138.516 -123.986 L 138.386 -123.206 Q 137.658 -123.154 137.151 -122.985 Q 136.644 -122.816 136.124 -122.478 Q 135.604 -122.14 134.798 -121.49 L 128.09 -116.082 L 133.836 -108.802 Q 134.356 -108.178 134.993 -107.931 Q 135.63 -107.684 136.592 -107.684 L 136.436 -106.904 L 128.948 -106.904 L 129.078 -107.684 L 129.416 -107.684 Q 130.014 -107.684 130.339 -107.84 Q 130.664 -107.996 130.664 -108.438 Q 130.664 -108.854 130.417 -109.387 Q 130.17 -109.92 129.559 -110.778 Q 128.948 -111.636 127.83 -112.962 L 126.192 -114.938 L 125.88 -114.938 L 124.944 -110.31 Q 124.736 -109.192 124.762 -108.633 Q 124.788 -108.074 125.295 -107.879 Q 125.802 -107.684 126.946 -107.684 L 126.79 -106.904 L 119.536 -106.904 L 119.692 -107.684 Q 120.784 -107.684 121.317 -107.879 Q 121.85 -108.074 122.097 -108.633 Q 122.344 -109.192 122.578 -110.31 Z " fill="black" /></g></g></g><circle cx="136.07999999999996" cy="-0.0" r="2.4299999999999997" style="stroke:black;fill:black;stroke-width:2.0;" /><g><g><g><path d="M 150.826 -59.826 L 150.826 -59.826 L 157.586 -59.826 Q 161.642 -59.826 163.54 -57.98 Q 165.438 -56.134 165.438 -53.092 Q 165.438 -49.426 163.969 -47.138 Q 162.5 -44.85 159.926 -43.797 Q 157.352 -42.744 154.024 -42.744 L 147.42 -42.744 L 147.576 -43.524 Q 148.564 -43.524 149.11 -43.693 Q 149.656 -43.862 149.942 -44.395 Q 150.228 -44.928 150.436 -45.968 L 152.698 -56.862 Q 152.88 -57.824 152.75 -58.279 Q 152.62 -58.734 152.113 -58.89 Q 151.606 -59.046 150.67 -59.046 Z M 155.402 -58.708 L 155.402 -58.708 L 152.334 -43.836 Q 152.698 -43.784 153.114 -43.771 Q 153.53 -43.758 154.024 -43.758 Q 158.21 -43.758 160.524 -45.903 Q 162.838 -48.048 162.838 -52.858 Q 162.838 -54.054 162.565 -55.12 Q 162.292 -56.186 161.616 -57.018 Q 160.94 -57.85 159.705 -58.318 Q 158.47 -58.786 156.546 -58.786 Q 156.208 -58.786 155.987 -58.773 Q 155.766 -58.76 155.402 -58.708 Z " fill="black" /></g></g></g><g><g><g><path d="M 191.674 -125.934 L 191.674 -125.934 Q 191.674 -124.556 191.154 -123.62 Q 190.634 -122.684 189.802 -122.086 Q 188.97 -121.488 188.021 -121.163 Q 187.072 -120.838 186.214 -120.682 L 186.214 -120.552 Q 186.682 -120.24 187.098 -119.603 Q 187.514 -118.966 188.125 -117.77 Q 188.736 -116.574 189.802 -114.546 Q 190.244 -113.766 190.777 -113.493 Q 191.31 -113.22 192.194 -113.22 L 192.038 -112.44 L 188.086 -112.44 Q 187.358 -114.052 186.864 -115.131 Q 186.37 -116.21 186.006 -116.938 Q 185.642 -117.666 185.369 -118.238 Q 185.096 -118.81 184.784 -119.408 Q 184.498 -119.954 184.16 -120.123 Q 183.822 -120.292 183.12 -120.292 L 182.574 -120.292 L 181.612 -115.664 Q 181.404 -114.598 181.469 -114.065 Q 181.534 -113.532 182.054 -113.376 Q 182.574 -113.22 183.692 -113.22 L 183.562 -112.44 L 176.386 -112.44 L 176.542 -113.22 Q 177.504 -113.22 178.024 -113.376 Q 178.544 -113.532 178.817 -114.052 Q 179.09 -114.572 179.298 -115.664 L 181.586 -126.818 Q 181.742 -127.546 181.664 -127.962 Q 181.586 -128.378 181.131 -128.56 Q 180.676 -128.742 179.636 -128.742 L 179.792 -129.522 L 185.902 -129.522 Q 188.632 -129.522 190.153 -128.677 Q 191.674 -127.832 191.674 -125.934 Z M 184.212 -128.43 L 184.212 -128.43 L 182.756 -121.254 L 183.562 -121.228 Q 185.122 -121.28 186.383 -121.735 Q 187.644 -122.19 188.372 -123.178 Q 189.1 -124.166 189.1 -125.83 Q 189.1 -126.532 188.801 -127.143 Q 188.502 -127.754 187.774 -128.131 Q 187.046 -128.508 185.746 -128.508 Q 185.252 -128.508 184.953 -128.495 Q 184.654 -128.482 184.212 -128.43 Z " fill="black" /></g></g></g><g><g><g><path d="M 259.362 -50.29 L 259.362 -50.29 L 259.83 -49.796 Q 258.504 -48.236 256.762 -47.235 Q 255.02 -46.234 252.55 -46.234 Q 250.21 -46.234 248.806 -47.105 Q 247.402 -47.976 246.791 -49.432 Q 246.18 -50.888 246.18 -52.604 Q 246.18 -55.334 247.012 -57.453 Q 247.844 -59.572 249.287 -61.015 Q 250.73 -62.458 252.55 -63.199 Q 254.37 -63.94 256.346 -63.94 Q 257.672 -63.94 258.413 -63.706 Q 259.154 -63.472 259.57 -63.225 Q 259.986 -62.978 260.298 -62.978 Q 260.61 -62.978 260.844 -63.238 Q 261.078 -63.498 261.39 -63.914 L 262.144 -63.914 L 260.922 -57.96 L 260.064 -57.96 Q 260.168 -60.56 259.102 -61.691 Q 258.036 -62.822 256.112 -62.822 Q 254.604 -62.822 253.278 -62.133 Q 251.952 -61.444 250.925 -60.183 Q 249.898 -58.922 249.313 -57.167 Q 248.728 -55.412 248.728 -53.254 Q 248.728 -50.654 249.963 -49.289 Q 251.198 -47.924 253.772 -47.924 Q 256.762 -47.924 259.362 -50.29 Z " fill="black" /><path d="M 270.212 -44.227 L 270.212 -44.227 L 269.593 -41.06 L 262.131 -41.06 L 262.131 -41.952 L 264.715 -44.573 Q 265.735 -45.592 266.399 -46.374 Q 267.063 -47.157 267.391 -47.949 Q 267.718 -48.74 267.718 -49.76 Q 267.718 -50.724 267.127 -51.352 Q 266.535 -51.98 265.462 -51.98 Q 264.479 -51.98 263.814 -51.589 Q 263.15 -51.197 262.641 -50.306 L 262.149 -50.542 Q 262.604 -51.816 263.56 -52.544 Q 264.515 -53.272 265.917 -53.272 Q 267.009 -53.272 267.846 -52.881 Q 268.683 -52.49 269.156 -51.762 Q 269.629 -51.034 269.629 -49.996 Q 269.629 -49.104 269.229 -48.322 Q 268.829 -47.539 268.091 -46.72 Q 267.354 -45.901 266.335 -44.9 L 264.06 -42.698 L 264.06 -42.571 L 265.48 -42.643 L 267.846 -42.643 Q 268.374 -42.643 268.656 -42.789 Q 268.938 -42.935 269.138 -43.289 Q 269.338 -43.644 269.575 -44.227 Z " fill="black" /></g></g></g></svg>
